images/company/Microsoft_Logo.svg

<svg width="213" height="44" viewBox="0 0 213 44" fill="none" xmlns="http://www.w3.org/2000/svg">
<g clip-path="url(#clip0_34_1679)">
<path d="M75.1843 25.3426L73.9148 28.8217H73.809C73.5974 28.0372 73.2095 26.8434 72.5747 25.4108L65.7686 8.86818H59.1035V35.2341H63.5116V18.9643C63.5116 17.941 63.5116 16.7814 63.4764 15.3488C63.4411 14.6325 63.3706 14.0868 63.3353 13.6775H63.4411C63.6527 14.7007 63.8995 15.4511 64.0759 15.9286L72.2573 35.1658H75.3606L83.4716 15.7581C83.6479 15.3147 83.8242 14.4279 84.0005 13.6775H84.1063C84.0005 15.6217 83.93 17.3612 83.8947 18.4186V35.1317H88.585V8.79996H82.1668L75.1843 25.3426ZM93.0283 16.2356H97.6128V35.1317H93.0283V16.2356ZM95.3558 8.25422C94.58 8.25422 93.9452 8.52709 93.4163 9.00461C92.8873 9.48213 92.6052 10.0961 92.6052 10.8465C92.6052 11.5627 92.8873 12.1767 93.4163 12.6542C93.9452 13.1317 94.58 13.3705 95.3558 13.3705C96.1317 13.3705 96.8017 13.0976 97.2954 12.6542C97.8244 12.1767 98.1065 11.5627 98.1065 10.8465C98.1065 10.1302 97.8244 9.51624 97.2954 9.00461C96.837 8.52709 96.1669 8.25422 95.3558 8.25422ZM113.87 16.0651C113.024 15.8945 112.142 15.7922 111.296 15.7922C109.215 15.7922 107.311 16.2356 105.724 17.1224C104.137 18.0093 102.867 19.2372 102.056 20.7721C101.21 22.341 100.787 24.1488 100.787 26.2294C100.787 28.0372 101.21 29.6403 102.021 31.1069C102.832 32.5395 103.96 33.6992 105.477 34.4837C106.923 35.2682 108.615 35.6775 110.52 35.6775C112.706 35.6775 114.575 35.2341 116.056 34.4155L116.092 34.3814V30.2883L115.915 30.4248C115.245 30.9023 114.469 31.3116 113.694 31.5503C112.882 31.8232 112.142 31.9596 111.507 31.9596C109.673 31.9596 108.228 31.448 107.205 30.3224C106.147 29.231 105.618 27.7302 105.618 25.8542C105.618 23.91 106.147 22.3752 107.24 21.2496C108.333 20.124 109.779 19.5441 111.542 19.5441C113.024 19.5441 114.54 20.0217 115.915 20.9767L116.092 21.1131V16.7814L116.056 16.7472C115.457 16.5085 114.787 16.2356 113.87 16.0651ZM128.999 15.9286C127.87 15.9286 126.812 16.2697 125.895 16.986C125.119 17.6 124.59 18.4868 124.132 19.5441H124.097V16.2356H119.512V35.1317H124.097V25.479C124.097 23.8418 124.449 22.4775 125.225 21.4883C126.001 20.4651 126.988 19.9534 128.187 19.9534C128.611 19.9534 129.034 20.0558 129.563 20.124C130.056 20.2604 130.409 20.3969 130.656 20.5674L130.832 20.7038V16.2697L130.727 16.2356C130.409 16.031 129.774 15.9286 128.999 15.9286ZM141.482 15.8263C138.273 15.8263 135.699 16.7472 133.9 18.555C132.067 20.3628 131.185 22.8527 131.185 25.9907C131.185 28.924 132.102 31.3116 133.865 33.0511C135.628 34.7565 138.026 35.6434 141.024 35.6434C144.162 35.6434 146.666 34.7224 148.465 32.8806C150.299 31.0387 151.18 28.5829 151.18 25.5472C151.18 22.5457 150.334 20.1581 148.606 18.4186C146.948 16.679 144.515 15.8263 141.482 15.8263ZM145.15 30.3565C144.304 31.4139 142.963 31.9255 141.306 31.9255C139.649 31.9255 138.308 31.4139 137.356 30.2883C136.404 29.231 135.946 27.6961 135.946 25.7519C135.946 23.7395 136.439 22.2046 137.356 21.1131C138.308 20.0217 139.613 19.4759 141.271 19.4759C142.893 19.4759 144.162 19.9876 145.079 21.0449C145.996 22.1023 146.49 23.6372 146.49 25.6496C146.419 27.6961 146.032 29.2992 145.15 30.3565ZM161.407 24.0806C159.961 23.5007 159.044 23.0573 158.621 22.6821C158.268 22.341 158.092 21.8635 158.092 21.2496C158.092 20.7379 158.304 20.2263 158.833 19.8852C159.362 19.5441 159.961 19.3736 160.843 19.3736C161.619 19.3736 162.43 19.51 163.206 19.7147C163.981 19.9193 164.687 20.2263 165.251 20.6356L165.427 20.7721V16.6108L165.321 16.5767C164.792 16.3721 164.087 16.1674 163.241 15.9969C162.394 15.8604 161.619 15.7922 160.984 15.7922C158.797 15.7922 156.999 16.3038 155.588 17.4294C154.178 18.4868 153.508 19.9193 153.508 21.5907C153.508 22.4775 153.649 23.262 153.966 23.91C154.283 24.5581 154.742 25.1721 155.377 25.6837C156.011 26.1612 156.928 26.7069 158.198 27.2186C159.256 27.662 160.067 28.0031 160.561 28.2759C161.054 28.5488 161.372 28.8558 161.619 29.0945C161.795 29.3674 161.901 29.7085 161.901 30.1519C161.901 31.4139 160.913 32.0279 158.903 32.0279C158.127 32.0279 157.316 31.8914 156.364 31.5845C155.412 31.2775 154.53 30.8341 153.79 30.3224L153.613 30.186V34.5178L153.719 34.5519C154.389 34.8589 155.2 35.0635 156.188 35.3023C157.175 35.4728 158.057 35.6093 158.833 35.6093C161.195 35.6093 163.135 35.0976 164.51 33.9721C165.921 32.8806 166.661 31.4821 166.661 29.6744C166.661 28.4124 166.309 27.2868 165.533 26.4341C164.51 25.6155 163.241 24.7628 161.407 24.0806ZM178.757 15.8263C175.548 15.8263 172.974 16.7472 171.175 18.555C169.377 20.3628 168.46 22.8527 168.46 25.9907C168.46 28.924 169.377 31.3116 171.14 33.0511C172.903 34.7565 175.301 35.6434 178.299 35.6434C181.437 35.6434 183.941 34.7224 185.74 32.8806C187.574 31.0387 188.455 28.5829 188.455 25.5472C188.455 22.5457 187.609 20.1581 185.881 18.4186C184.223 16.679 181.79 15.8263 178.757 15.8263ZM182.39 30.3565C181.543 31.4139 180.203 31.9255 178.546 31.9255C176.853 31.9255 175.548 31.4139 174.596 30.2883C173.644 29.231 173.185 27.6961 173.185 25.7519C173.185 23.7395 173.679 22.2046 174.596 21.1131C175.548 20.0217 176.853 19.4759 178.51 19.4759C180.097 19.4759 181.402 19.9876 182.319 21.0449C183.236 22.1023 183.73 23.6372 183.73 25.6496C183.73 27.6961 183.271 29.2992 182.39 30.3565ZM212.964 19.8852V16.2356H208.345V10.6418L208.204 10.6759L203.831 11.9379L203.725 11.9721V16.2356H196.813V13.848C196.813 12.7565 197.095 11.9038 197.589 11.3581C198.082 10.8124 198.823 10.5395 199.74 10.5395C200.375 10.5395 201.045 10.6759 201.785 10.9829L201.962 11.0852V7.23097L201.856 7.19686C201.221 6.99221 200.375 6.85577 199.281 6.85577C197.906 6.85577 196.707 7.16275 195.614 7.67438C194.521 8.25422 193.71 9.03872 193.11 10.0961C192.511 11.1193 192.193 12.279 192.193 13.6093V16.2356H188.984V19.8511H192.193V35.1317H196.813V19.8852H203.725V29.6062C203.725 33.5969 205.664 35.6093 209.544 35.6093C210.178 35.6093 210.848 35.5069 211.483 35.4046C212.153 35.2682 212.647 35.0976 212.929 34.9612L212.964 34.9271V31.2775L212.788 31.4139C212.506 31.5845 212.259 31.7209 211.836 31.8232C211.483 31.9255 211.166 31.9596 210.919 31.9596C210.002 31.9596 209.367 31.755 208.909 31.2434C208.486 30.7659 208.274 29.9814 208.274 28.8217V19.8852H212.964Z" fill="#737373"/>
<path d="M0 0H21.6174V20.9085H0V0Z" fill="#F25022"/>
<path d="M23.874 0H45.4914V20.9085H23.874V0Z" fill="#7FBA00"/>
<path d="M0 23.0915H21.6174V44H0V23.0915Z" fill="#00A4EF"/>
<path d="M23.874 23.0915H45.4914V44H23.874V23.0915Z" fill="#FFB900"/>
</g>
<defs>
<clipPath id="clip0_34_1679">
<rect width="213" height="44" fill="white"/>
</clipPath>
</defs>
</svg>

<svg xmlns="http://www.w3.org/2000/svg" width="213" height="44" fill="none"><g clip-path="url(#a)"><path fill="#737373" d="m75.184 25.343-1.27 3.479h-.105c-.212-.785-.6-1.979-1.234-3.411L65.769 8.868h-6.666v26.366h4.409v-16.27c0-1.023 0-2.183-.036-3.615-.035-.716-.105-1.262-.14-1.671h.105c.212 1.023.459 1.773.635 2.25l8.181 19.238h3.104l8.11-19.408c.177-.443.353-1.33.53-2.08h.105a238.248 238.248 0 0 0-.211 4.74v16.714h4.69V8.8h-6.418l-6.983 16.543Zm17.844-9.107h4.585v18.896h-4.585V16.236Zm2.328-7.982c-.776 0-1.41.273-1.94.75-.529.478-.81 1.092-.81 1.843 0 .716.281 1.33.81 1.807.53.478 1.164.716 1.94.716s1.446-.272 1.94-.716a2.364 2.364 0 0 0 .81-1.807c0-.717-.282-1.33-.81-1.842-.459-.478-1.13-.75-1.94-.75Zm18.514 7.811a13.196 13.196 0 0 0-2.574-.273c-2.081 0-3.985.444-5.572 1.33-1.587.887-2.857 2.115-3.668 3.65-.846 1.569-1.269 3.377-1.269 5.457 0 1.808.423 3.411 1.234 4.878.811 1.432 1.939 2.592 3.456 3.377 1.446.784 3.138 1.194 5.043 1.194 2.186 0 4.055-.444 5.536-1.262l.036-.035v-4.093l-.177.137c-.67.477-1.446.887-2.221 1.125-.812.273-1.552.41-2.187.41-1.834 0-3.279-.512-4.302-1.638-1.058-1.091-1.587-2.592-1.587-4.468 0-1.944.529-3.479 1.622-4.604 1.093-1.126 2.539-1.706 4.302-1.706 1.482 0 2.998.478 4.373 1.433l.177.136v-4.332l-.036-.034c-.599-.238-1.269-.511-2.186-.682Zm15.129-.136a4.942 4.942 0 0 0-3.104 1.057c-.776.614-1.305 1.5-1.763 2.558h-.035v-3.308h-4.585v18.896h4.585v-9.653c0-1.637.352-3.002 1.128-3.99.776-1.024 1.763-1.536 2.962-1.536.424 0 .847.103 1.376.171.493.136.846.273 1.093.443l.176.137V16.27l-.105-.034c-.318-.205-.953-.307-1.728-.307Zm12.483-.103c-3.209 0-5.783.921-7.582 2.729-1.833 1.808-2.715 4.298-2.715 7.436 0 2.933.917 5.32 2.68 7.06 1.763 1.706 4.161 2.592 7.159 2.592 3.138 0 5.642-.92 7.441-2.762 1.834-1.842 2.715-4.298 2.715-7.334 0-3.001-.846-5.389-2.574-7.128-1.658-1.74-4.091-2.593-7.124-2.593Zm3.668 14.53c-.846 1.058-2.187 1.57-3.844 1.57s-2.998-.512-3.95-1.638c-.952-1.057-1.41-2.592-1.41-4.536 0-2.012.493-3.547 1.41-4.639.952-1.091 2.257-1.637 3.915-1.637 1.622 0 2.891.512 3.808 1.569.917 1.057 1.411 2.592 1.411 4.605-.071 2.046-.458 3.65-1.34 4.707Zm16.257-6.275c-1.446-.58-2.363-1.024-2.786-1.399-.353-.341-.529-.819-.529-1.432 0-.512.212-1.024.741-1.365.529-.34 1.128-.511 2.01-.511.776 0 1.587.136 2.363.34.775.205 1.481.512 2.045.922l.176.136v-4.161l-.106-.034a13.058 13.058 0 0 0-2.08-.58 14.6 14.6 0 0 0-2.257-.205c-2.187 0-3.985.512-5.396 1.637-1.41 1.058-2.08 2.49-2.08 4.162 0 .886.141 1.671.458 2.319a5.187 5.187 0 0 0 1.411 1.774c.634.477 1.551 1.023 2.821 1.535 1.058.443 1.869.784 2.363 1.057.493.273.811.58 1.058.819.176.272.282.614.282 1.057 0 1.262-.988 1.876-2.998 1.876-.776 0-1.587-.137-2.539-.444a9.93 9.93 0 0 1-2.574-1.262l-.177-.136v4.332l.106.034c.67.307 1.481.511 2.469.75.987.17 1.869.307 2.645.307 2.362 0 4.302-.511 5.677-1.637 1.411-1.091 2.151-2.49 2.151-4.298 0-1.262-.352-2.387-1.128-3.24a14.408 14.408 0 0 0-4.126-2.353Zm17.35-8.255c-3.209 0-5.783.921-7.582 2.729-1.798 1.808-2.715 4.298-2.715 7.436 0 2.933.917 5.32 2.68 7.06 1.763 1.706 4.161 2.592 7.159 2.592 3.138 0 5.642-.92 7.441-2.762 1.834-1.842 2.715-4.298 2.715-7.334 0-3.001-.846-5.389-2.574-7.128-1.658-1.74-4.091-2.593-7.124-2.593Zm3.633 14.53c-.847 1.058-2.187 1.57-3.844 1.57-1.693 0-2.998-.512-3.95-1.638-.952-1.057-1.411-2.592-1.411-4.536 0-2.012.494-3.547 1.411-4.639.952-1.091 2.257-1.637 3.914-1.637 1.587 0 2.892.512 3.809 1.569.917 1.057 1.411 2.592 1.411 4.605 0 2.046-.459 3.65-1.34 4.707Zm30.574-10.47v-3.65h-4.619v-5.594l-.141.034-4.373 1.262-.106.034v4.264h-6.912v-2.388c0-1.091.282-1.944.776-2.49.493-.546 1.234-.819 2.151-.819.635 0 1.305.137 2.045.444l.177.102V7.231l-.106-.034c-.635-.205-1.481-.341-2.575-.341a8.488 8.488 0 0 0-3.667.818c-1.093.58-1.904 1.365-2.504 2.422-.599 1.023-.917 2.183-.917 3.513v2.627h-3.209v3.615h3.209v15.28h4.62V19.886h6.912v9.721c0 3.99 1.939 6.003 5.819 6.003.634 0 1.304-.102 1.939-.204.67-.137 1.164-.307 1.446-.444l.035-.034v-3.65l-.176.137c-.282.17-.529.307-.952.41-.353.101-.67.136-.917.136-.917 0-1.552-.205-2.01-.717-.423-.477-.635-1.262-.635-2.421v-8.937h4.69Z"/><path fill="#F25022" d="M0 0h21.617v20.909H0V0Z"/><path fill="#7FBA00" d="M23.874 0h21.617v20.909H23.874V0Z"/><path fill="#00A4EF" d="M0 23.091h21.617V44H0V23.091Z"/><path fill="#FFB900" d="M23.874 23.091h21.617V44H23.874V23.091Z"/></g><defs><clipPath id="a"><path fill="#fff" d="M0 0h213v44H0z"/></clipPath></defs></svg>
